X:1
T:Mrs. Baird of New Byth [1]
T:Mrs. Baird of New Byth [1]
T:Niel Gow
C:Niel Gow
L:1/8
Q:1/4=120
M:4/4
K:D
V:1 treble 
V:1
"^Slowish" B | AD{B} AG/F/ E(=CC>)E | AD (B/A/G/F/) AD (B/A/G/F/) | BGAF E(=CC>)E | %4
 AD{B} AG/F/ ADD :| (g | f>)dAd e(=cc>)e | f>dAd f>dAd | A>dfd e(=cc>)e | f>dAd F(DD>)(g | %10
 f>)dAd e(=cc>)(e | f>)dAd f>dec | d>A=c>=F E(=CC>)E | AD{B} AG/F/ ADD || %14

